X: 229
T:Tony Rowe's
N: page 75
N: heptatonic
E:10
M:6/8
R:jig
I:speed 350
K:D
E|"D"~F3 "A7"AFE|"D"EDB, A,B,D|FEF "G7"GFG|"D"ABF AFE|\
~F3 "A7"AFE|"D"EDB, A,B,D|FEF "G7"GFG|"D"AFD D2:|
e|f2 d dcd |edc Bcd|f2d dcd|"A7"ABF Ade|\
"D"f2d dcd|edc Bcd|faf "A7"gec|"D"dfe d2:|
